X:74
T:Rambling Pitchfork, The
T:Fisherman's Widow, The
R:jig
Z:id:hn-jig-74
M:6/8
K:D
~F3 AFF|dFF AFD|~G3 ABc|ded cBA|~F3 AFF|dFF AFD|GFG BAB|1 AFD D2E:|2 AFD D3||
|:d2e fed|edB AFA|d2e fed|faf gfe|d2e fed|edB AFA|~G3 BAB|1 AFD D3:|2 AFD D2E||
P:Variations and different 2nd ending for 2nd part
|:~F3 AFF|dFF AFD|GFG ABc|ded cAG|FEF AFF|dFF AFD|~G3 BAB|1 AFD D2E:|2 AFD D3||
d2e fdf|ecA AFA|d2e fed|faf gfe|d2e fdf|ecA AGF|~G3 BAB|AFD D3|
d2e fdf|ecA AFA|d2e fed|faf g2e|agf gfe|fed cAF|GFG BAB|AFD D2E||
P:Version 2:
|:~F3 AFF|=cFF AFD|~G3 GBd|fed =cAG|~F3 AFF|=cFF AFD|GFG BGB|1 AFD D2E:|2 AFD D3||
|:d2e fdf|ecA AFA|d2e fed|f/g/af gfe|d2e fdf|ecA AGF|~G3 BGB|1 AFD D3:|2 AFD D2E||

